X: 5
T:Vem kan segla f\"orutan vind?
M:6/8
L:1/8
Q:120
C:anon.
O:Finland?
Z:Transcribed by Frank Nordberg - http://www.musicaviva.com
K:Em
E2E2 G2FE|B2B2B3 z|c2c2 e2dc|B4B3 z|
A2A2 c2BA|G2G2E3 z|F2FF B,2^D2|E4E3 z|]
W:
W: From "Falaleiro" http://home.t-online.de/home/pheld/homepage.htm

